icons-common/charge.svg

<svg height="1em" width="auto" viewBox="0 0 105 105" fill="currentColor" xmlns="http://www.w3.org/2000/svg">
    <path d="M83.65 41.272C83.65 41.272 80.183 41.0994 76.2826 40.9268C75.6759 36.6551 73.7257 32.858 70.8654 29.8808C68.2218 27.1192 64.7981 25.0913 60.9844 24.1851C59.4242 23.7968 57.8207 23.5811 56.1739 23.5811H39.7056C28.4812 23.5811 19.3369 32.6854 19.3369 43.8178V69.6207C19.3369 80.7962 28.4812 89.9006 39.7056 89.9006H56.1739C67.3984 89.9006 76.4993 80.7962 76.4993 69.6207V57.237L85.7302 45.8889C87.1603 44.2061 85.9469 41.3152 83.65 41.272ZM76.4993 48.219L68.9152 57.5391V69.6207C68.9152 76.6539 63.1946 82.3496 56.1739 82.3496H39.7056C32.6416 82.3496 26.921 76.6539 26.921 69.6207V43.8178C26.921 36.8277 32.6416 31.1321 39.7056 31.1321H56.1739C58.1241 31.1321 59.9876 31.5636 61.6345 32.3402L64.4514 28.8883C64.3214 29.5787 64.1914 30.226 64.0614 30.7869C64.0614 30.83 63.8447 31.9088 63.498 33.419C66.7916 35.749 68.9152 39.5461 68.9152 43.8178V47.7012L76.4993 47.3128H77.2794L76.4993 48.219Z"
          />
    <path d="M38.3189 76.1367C41.239 76.1367 43.6061 73.7798 43.6061 70.8725C43.6061 67.9652 41.239 65.6084 38.3189 65.6084C35.3989 65.6084 33.0317 67.9652 33.0317 70.8725C33.0317 73.7798 35.3989 76.1367 38.3189 76.1367Z"
          />
    <path d="M57.1707 37.8634L50.6268 45.8891C48.1998 46.0185 45.7729 45.9754 43.346 45.8459C41.5258 45.7596 39.749 45.6302 37.9722 45.4576C33.5951 44.8966 33.6384 38.4243 37.9722 37.9065C42.0459 37.4751 46.1196 37.3025 50.2367 37.3888C52.5336 37.4319 54.8305 37.5614 57.1707 37.8634Z"
          />
    <path d="M63.4981 33.4196C62.588 37.4325 60.9412 44.6383 61.1579 44.4226C61.2445 46.4505 62.978 47.9608 65.0149 47.8745L68.9153 47.7019V43.8185C68.9153 39.5468 66.7918 35.7497 63.4981 33.4196ZM65.3183 61.9841C62.848 65.0045 59.4244 69.1899 56.2174 73.1596C56.3907 72.4692 56.5207 71.822 56.6507 71.261C56.6507 71.1316 59.9011 57.1946 59.5544 57.5829C59.4244 55.5981 57.6908 54.0447 55.7407 54.1742L43.3894 54.7782L50.6268 45.8896L57.1708 37.864L61.6346 32.3409C59.9877 31.5642 58.1242 31.1328 56.174 31.1328H55.3073L50.2368 37.3893L43.3461 45.8465L34.9819 56.1159C33.4651 57.8849 34.8953 60.8191 37.1921 60.7759L51.3636 61.5094C50.6268 66.601 49.5867 73.5479 49.1967 76.5252C48.98 78.0785 48.5466 80.8832 48.3733 82.3503H56.0874C60.1178 77.4313 65.1016 71.2179 68.9153 66.5578V57.5398L65.3183 61.9841ZM66.7051 17.1526L60.9845 24.1858C64.7982 25.0919 68.2219 27.1199 70.8655 29.8814C71.3855 26.6453 71.9923 22.4599 72.3823 19.7847C73.1191 16.5054 68.6553 14.4774 66.7051 17.1526Z"
          />
</svg>

<svg xmlns="http://www.w3.org/2000/svg" width="auto" height="1em" fill="currentColor" viewBox="0 0 105 105">
    <path d="M83.65 41.272s-3.467-.173-7.367-.345c-.607-4.272-2.557-8.069-5.418-11.046-2.643-2.762-6.067-4.79-9.88-5.696a20 20 0 0 0-4.811-.604H39.706c-11.225 0-20.37 9.104-20.37 20.237V69.62c0 11.175 9.145 20.28 20.37 20.28h16.468c11.224 0 20.325-9.105 20.325-20.28V57.237l9.231-11.348c1.43-1.683.217-4.574-2.08-4.617m-7.15 6.947-7.585 9.32v12.082c0 7.033-5.72 12.729-12.741 12.729H39.706c-7.064 0-12.785-5.696-12.785-12.73V43.819c0-6.99 5.72-12.686 12.785-12.686h16.468c1.95 0 3.814.432 5.46 1.208l2.817-3.452c-.13.69-.26 1.338-.39 1.899 0 .043-.216 1.122-.563 2.632 3.294 2.33 5.417 6.127 5.417 10.399V47.7l7.584-.388h.78z"/>
    <path d="M38.319 76.137c2.92 0 5.287-2.357 5.287-5.264s-2.367-5.265-5.287-5.265-5.287 2.357-5.287 5.264 2.367 5.265 5.287 5.265M57.17 37.863l-6.543 8.026c-2.427.13-4.854.086-7.281-.043-1.82-.086-3.597-.216-5.374-.388-4.377-.561-4.334-7.034 0-7.551a97 97 0 0 1 12.265-.518c2.297.043 4.593.172 6.934.474"/>
    <path d="M63.498 33.42c-.91 4.012-2.557 11.218-2.34 11.003.087 2.027 1.82 3.538 3.857 3.451l3.9-.172v-3.883c0-4.272-2.123-8.07-5.417-10.4m1.82 28.564c-2.47 3.02-5.894 7.206-9.1 11.176.173-.69.303-1.338.433-1.899 0-.13 3.25-14.066 2.903-13.678-.13-1.985-1.863-3.538-3.813-3.409l-12.352.604 7.238-8.888 6.544-8.026 4.464-5.523a12.8 12.8 0 0 0-5.461-1.208h-.867l-5.07 6.256-6.89 8.457-8.365 10.27c-1.517 1.769-.087 4.703 2.21 4.66l14.172.733c-.737 5.092-1.777 12.039-2.167 15.016-.217 1.553-.65 4.358-.824 5.825h7.714c4.03-4.919 9.015-11.132 12.828-15.792V57.54zm1.387-44.831-5.72 7.033c3.813.906 7.237 2.934 9.88 5.695.52-3.236 1.127-7.421 1.517-10.096.737-3.28-3.727-5.308-5.677-2.632"/>
</svg>
